X: 43606
T: Youngest Ancient Mariner, The
R: waltz
M: 3/4
K: Gmajor
G6|G2A2B2|e6|g3ed2|B6|d3eG2|BA3-A2|B3AG2|
G6|G3AB2|e6|g3ed2|B6|d3Ad2|G6-|G6:|
e6|g3ed2|B6|B3AB2|e6|d3eG2|BA3-A2|
B3AG2|e6|g3ed2|B6|B3AB2|G6|d3Ad2|G6-|G6|
e6|g3ed2|B6|B3AB2|e3d B2|d3eG2|BA3-A2|
B3AG2|G6|G3AB2|e6|g3ed2|B6|d3Ad2|G6-|G6||

